public/library/stripe-text-light.svg

<svg width="360" height="150" viewBox="0 0 360 150" fill="none" xmlns="http://www.w3.org/2000/svg">
<path fill-rule="evenodd" clip-rule="evenodd" d="M360 77.4001C360 51.8001 347.6 31.6001 323.9 31.6001C300.1 31.6001 285.7 51.8001 285.7 77.2001C285.7 107.3 302.7 122.5 327.1 122.5C339 122.5 348 119.8 354.8 116V96.0001C348 99.4001 340.2 101.5 330.3 101.5C320.6 101.5 312 98.1001 310.9 86.3001H359.8C359.8 85.0001 360 79.8001 360 77.4001ZM310.6 67.9001C310.6 56.6001 317.5 51.9001 323.8 51.9001C329.9 51.9001 336.4 56.6001 336.4 67.9001H310.6Z" fill="#533AFD"/>
<path fill-rule="evenodd" clip-rule="evenodd" d="M247.1 31.6001C237.3 31.6001 231 36.2001 227.5 39.4001L226.2 33.2001H204.2V149.8L229.2 144.5L229.3 116.2C232.9 118.8 238.2 122.5 247 122.5C264.9 122.5 281.2 108.1 281.2 76.4001C281.1 47.4001 264.6 31.6001 247.1 31.6001ZM241.1 100.5C235.2 100.5 231.7 98.4001 229.3 95.8001L229.2 58.7001C231.8 55.8001 235.4 53.8001 241.1 53.8001C250.2 53.8001 256.5 64.0001 256.5 77.1001C256.5 90.5001 250.3 100.5 241.1 100.5Z" fill="#533AFD"/>
<path fill-rule="evenodd" clip-rule="evenodd" d="M169.8 25.7L194.9 20.3V0L169.8 5.3V25.7Z" fill="#533AFD"/>
<path d="M194.9 33.3H169.8V120.8H194.9V33.3Z" fill="#533AFD"/>
<path fill-rule="evenodd" clip-rule="evenodd" d="M142.9 40.7L141.3 33.3H119.7V120.8H144.7V61.5C150.6 53.8 160.6 55.2 163.7 56.3V33.3C160.5 32.1 148.8 29.9 142.9 40.7Z" fill="#533AFD"/>
<path fill-rule="evenodd" clip-rule="evenodd" d="M92.8999 11.6001L68.4999 16.8001L68.3999 96.9001C68.3999 111.7 79.4999 122.6 94.2999 122.6C102.5 122.6 108.5 121.1 111.8 119.3V99.0001C108.6 100.3 92.7999 104.9 92.7999 90.1001V54.6001H111.8V33.3001H92.7999L92.8999 11.6001Z" fill="#533AFD"/>
<path fill-rule="evenodd" clip-rule="evenodd" d="M25.3 58.7001C25.3 54.8001 28.5 53.3001 33.8 53.3001C41.4 53.3001 51 55.6001 58.6 59.7001V36.2001C50.3 32.9001 42.1 31.6001 33.8 31.6001C13.5 31.6001 0 42.2001 0 59.9001C0 87.5001 38 83.1001 38 95.0001C38 99.6001 34 101.1 28.4 101.1C20.1 101.1 9.5 97.7001 1.1 93.1001V116.9C10.4 120.9 19.8 122.6 28.4 122.6C49.2 122.6 63.5 112.3 63.5 94.4001C63.4 64.6001 25.3 69.9001 25.3 58.7001Z" fill="#533AFD"/>
</svg>

<svg xmlns="http://www.w3.org/2000/svg" width="360" height="150" fill="none" viewBox="0 0 360 150"><path fill="#533afd" fill-rule="evenodd" d="M360 77.4c0-25.6-12.4-45.8-36.1-45.8-23.8 0-38.2 20.2-38.2 45.6 0 30.1 17 45.3 41.4 45.3 11.9 0 20.9-2.7 27.7-6.5V96c-6.8 3.4-14.6 5.5-24.5 5.5-9.7 0-18.3-3.4-19.4-15.2h48.9c0-1.3.2-6.5.2-8.9m-49.4-9.5c0-11.3 6.9-16 13.2-16 6.1 0 12.6 4.7 12.6 16zM247.1 31.6c-9.8 0-16.1 4.6-19.6 7.8l-1.3-6.2h-22v116.6l25-5.3.1-28.3c3.6 2.6 8.9 6.3 17.7 6.3 17.9 0 34.2-14.4 34.2-46.1-.1-29-16.6-44.8-34.1-44.8m-6 68.9c-5.9 0-9.4-2.1-11.8-4.7l-.1-37.1c2.6-2.9 6.2-4.9 11.9-4.9 9.1 0 15.4 10.2 15.4 23.3 0 13.4-6.2 23.4-15.4 23.4M169.8 25.7l25.1-5.4V0l-25.1 5.3z" clip-rule="evenodd"/><path fill="#533afd" d="M194.9 33.3h-25.1v87.5h25.1z"/><path fill="#533afd" fill-rule="evenodd" d="m142.9 40.7-1.6-7.4h-21.6v87.5h25V61.5c5.9-7.7 15.9-6.3 19-5.2v-23c-3.2-1.2-14.9-3.4-20.8 7.4M92.9 11.6l-24.4 5.2-.1 80.1c0 14.8 11.1 25.7 25.9 25.7 8.2 0 14.2-1.5 17.5-3.3V99c-3.2 1.3-19 5.9-19-8.9V54.6h19V33.3h-19zM25.3 58.7c0-3.9 3.2-5.4 8.5-5.4 7.6 0 17.2 2.3 24.8 6.4V36.2c-8.3-3.3-16.5-4.6-24.8-4.6C13.5 31.6 0 42.2 0 59.9 0 87.5 38 83.1 38 95c0 4.6-4 6.1-9.6 6.1-8.3 0-18.9-3.4-27.3-8v23.8c9.3 4 18.7 5.7 27.3 5.7 20.8 0 35.1-10.3 35.1-28.2-.1-29.8-38.2-24.5-38.2-35.7" clip-rule="evenodd"/></svg>
